X:1
T: Motif 5
L:1/8
M:4/4
V:1
V:2 clef=bass
K:C
[V:1] DEFG Aceg | fedc B4 | CDEF GBde | ^c_BAG F4 :|
[V:2] [D,F,C]8 | [G,,F,B,]8 | [C,E,B,]8 | [A,,G,^C]8 :|